packages/icons/svg/Outline/cast.svg

<svg width="24" height="24" viewBox="0 0 24 24" fill="none" xmlns="http://www.w3.org/2000/svg">
<g id="Icon/Outline/cast">
<path id="Mask" fill-rule="evenodd" clip-rule="evenodd" d="M5.59949 3H18.4005C19.8345 3 21.0005 4.246 21.0005 5.777V18.223C21.0005 19.754 19.8345 21 18.4005 21H17.0005C16.4475 21 16.0005 20.553 16.0005 20C16.0005 19.447 16.4475 19 17.0005 19H18.4005C18.7255 19 19.0005 18.644 19.0005 18.223V5.777C19.0005 5.356 18.7255 5 18.4005 5H5.59949C5.27449 5 5.00049 5.356 5.00049 5.777V7C5.00049 7.553 4.55249 8 4.00049 8C3.44749 8 3.00049 7.553 3.00049 7V5.777C3.00049 4.246 4.16649 3 5.59949 3ZM3.00939 15.17C2.93339 14.623 3.31639 14.118 3.86339 14.043C5.28339 13.849 6.66939 14.314 7.67739 15.321C9.01439 16.66 9.37739 18.71 8.57839 20.423C8.40839 20.786 8.04839 21 7.67139 21C7.52939 21 7.38539 20.97 7.24939 20.906C6.74939 20.673 6.53239 20.078 6.76539 19.577C7.21039 18.624 7.00939 17.481 6.26339 16.736C5.70139 16.175 4.92739 15.918 4.13639 16.023C3.58339 16.102 3.08439 15.717 3.00939 15.17ZM3.86239 10.0771C3.31539 10.1531 2.93339 10.6581 3.00939 11.2051C3.08539 11.7511 3.58839 12.1341 4.13739 12.0571C6.02839 11.7991 7.88539 12.4171 9.23439 13.7651C10.7904 15.3221 11.3754 17.6041 10.7594 19.7211C10.6054 20.2511 10.9104 20.8061 11.4404 20.9601C11.5344 20.9871 11.6284 21.0001 11.7194 21.0001C12.1534 21.0001 12.5524 20.7171 12.6794 20.2791C13.4994 17.4631 12.7204 14.4251 10.6484 12.3511C8.85339 10.5561 6.38439 9.7261 3.86239 10.0771ZM3.00009 19C3.00009 18.447 3.44709 18 4.00009 18C4.55309 18 5.00009 18.447 5.00009 19C5.00009 19.553 4.55309 20 4.00009 20C3.44709 20 3.00009 19.553 3.00009 19Z" fill="#000000"/>
</g>
</svg>

<svg fill="none" height="24" viewBox="0 0 24 24" width="24" xmlns="http://www.w3.org/2000/svg"><path clip-rule="evenodd" d="m5.59937 3h12.80103c1.434 0 2.6 1.246 2.6 2.777v12.446c0 1.531-1.166 2.777-2.6 2.777h-1.4c-.553 0-1-.447-1-1s.447-1 1-1h1.4c.325 0 .6-.356.6-.777v-12.446c0-.421-.275-.777-.6-.777h-12.80103c-.325 0-.599.356-.599.777v1.223c0 .553-.448 1-1 1-.553 0-1-.447-1-1v-1.223c0-1.531 1.166-2.777 2.599-2.777zm-2.5901 12.1699c-.076-.547.307-1.052.854-1.127 1.42-.194 2.806.271 3.814 1.278 1.337 1.339 1.7 3.389.901 5.102-.17.363-.53.577-.907.577-.142 0-.286-.03-.422-.094-.5-.233-.717-.828-.484-1.329.445-.953.244-2.096-.502-2.841-.562-.561-1.336-.818-2.127-.713-.553.079-1.052-.306-1.127-.853zm.853-5.0927c-.547.076-.929.581-.853 1.128.076.546.579.929 1.128.852 1.891-.258 3.748.36 5.097 1.708 1.55603 1.557 2.14103 3.839 1.52503 5.956-.154.53.151 1.085.681 1.239.094.027.188.04.279.04.434 0 .833-.283.96-.721.82-2.816.041-5.854-2.031-7.928-1.79503-1.795-4.26403-2.62503-6.78603-2.274zm-.8623 8.9228c0-.553.447-1 1-1s1 .447 1 1-.447 1-1 1-1-.447-1-1z" fill="#6b7280" fill-rule="evenodd"/></svg>
